X:1
T:Song of the Beautiful
T:Song of the Beautiful
T:Mrs. E. B. Tallmadge
C:Mrs. E. B. Tallmadge
%%score [ ( 1 2 ) 3 4 ]
L:1/8
Q:1/4=100
M:6/8
K:Bb
V:1 treble nm="Soprano" snm="S"
V:2 treble 
V:3 treble-8 nm="Tenor" snm="T"
V:4 bass nm="Bass" snm="B"
V:1
"^Alto""^1""^Words by  J. D. Tallmadge" DE=E F2 d | c2 B G3 | AGF (AB)d | (B3 d2) z | DE=E F2 d | %5
w: 1.Beau- ti- ful flow'rs so|fresh and fair,|Come at the call * of|spring; *|O- pen your buds to|
"^A""^6" c2 B G3 | AGF (AB)c | B3- B2 z | ABc (cB)A | B2 c d3 |"^A""^11" GAB (cB)G | F3- F2 z | %12
w: ver- nal air,|O- dors so sweet * you|bring. *|Come in your robes * of|va- ried hue,|Spread o'er the meads * and|bow'rs; *|
 DE=E F2 d | c2 B G3 | AGF ABc |"^A""^16" B3- B z F | F3- F2 d | (c3 G2) z | AGF Ace | (d3 B2) F | %20
w: Who that loves beau- ty|loves not you?|Beau- ti- ful, beau- ti- ful|flow'rs! * We|come, * we|come, *|Beau- ti- ful, beau- ti- ful|flow'rs! * (1..3)We|
"^A""^21" F3- F2 d | (c3 G2) z | AGA eeA | B3- B2 z |] %24
w: come, * we|come, *|Beau- ti- ful, beau- ti- ful|flow'rs! *|
V:2
 DC^C D2 F | E2 E E3 | FFF F2 E | D3 F2 z | B,C^C D2 F | E2 E E3 | FFF F2 F | F3- F2 z | FFF F2 F | %9
 D2 E F3 | EEE E2 E | D3- D2 z | B,C^C D2 F | E2 E E3 | FFF FFF | F3- F z D | D3- D2 F | E3- E2 z | %18
 FFD FFF | (F3 D2) D | D3- D2 F | E3- E2 z | FFF FFF | F3- F2 z |] %24
V:3
 BBB B2 B | G2 G B3 | ABc (cB)F | (F3 B2) z | BBB B2 B | G2 G B3 | ABc (cd)e | d3- d2 z | %8
w: 2.Beau- ti- ful birds, with|plum- age bright,|Warb- ling in bow'rs * so|gay; *|Wel- come, your notes of|wild de- light,|Sing- ing the live- * long|day. *|
 cde (ed)c | B2 A B3 | BcB (GB)B | B3- B2 z | BBB B2 B | G2 G B3 | ABc cde | d3- d z z | z BB B3 | %17
w: Na- ture hath tuned * your|voic- es sweet,|Plain- ly as spok- * en|words, *|With her true har- mo-|ny com- plete,|Beau- ti- ful, beau- ti- ful|birds! *|Yes, we come,|
 z GG B2 z | ABc cAc | (B3 F2) z | z BB B3 | z GG B2 z | Aee cce | d3- d2 z |] %24
w: yes, we come,|Beau- ti- ful, beau- ti- ful|birds! *|Yes, we come,|yes, we come,|Beau- ti- ful, beau- ti- ful|birds! *|
V:4
 B,,B,,B,, B,,2 B,, | E,2 E, E,3 | F,F,F, F,2 F, | B,,3- B,,2 z | B,,B,,B,, B,,2 B,, | E,2 E, E,3 | %6
w: 3.Beau- ti- ful thoughts that|oft do come|Glad- den our souls with|love; *|Shed- ding bright rays in|ev- 'ry home,|
 F,F,F, F,2 F, | B,,3- B,,2 z | F,F,F, F,2 F, | B,,2 B,, B,,3 | E,E,E, E,2 E, | B,,3- B,,2 z | %12
w: Come ye from spheres a-|bove? *|When the dark shades of|wo a- rise,|Cloud- ing with gloom our|lots, *|
 B,,B,,B,, B,,2 B,, | E,2 E, E,3 | F,F,F, F,F,F, | B,,3- B,, z z | z B,,B,, B,,3 | z E,E, E,2 z | %18
w: Then do ye come to|light our skies,|Beau- ti- ful, beau- ti- ful|thoughts! *|Yes, we come,|yes, we come,|
 F,F,F, F,F,F, | B,,3- B,,2 z | z B,,B,, B,,3 | z E,E, E,2 z | F,F,F, F,F,F, | %23
w: Beau- ti- ful, beau- ti- ful|thoughts! *|Yes, we come,|yes, we come,|Beau- ti- ful, beau- ti- ful|
"^Edition Copyright © 2002 as public domain. May be freely used." B,,3- B,,2 z |] %24
w: thoughts! *|

